X: 29966
T: Oban Ball, The
R: reel
M: 4/4
K: Dmajor
e|ABdA B2AB|d2fe dBBe|ABdA B2AB|e2fB AAA:|
a|f2 e2 e2 de|f2 ef dBBa|f2 f2 e2 dB|e2 fB AAA
a|f2 e2 e2 de|f2 ef dBBa|f2 ed e2 dB|e2 fB AAA||

